img/logo.svg

<svg width="154" height="64" viewBox="0 0 154 64" fill="none" xmlns="http://www.w3.org/2000/svg">
<path d="M59.3411 43.1507C58.6031 43.0641 57.8564 43.196 57.1891 43.5308C57.1891 43.5308 54.1865 46.1093 39.3332 43.1404C28.4134 40.9523 22.7384 41.1783 22.7384 41.1783C22.7384 41.1783 24.57 28.3371 24.0695 24.7415C24.0466 24.4763 23.9242 24.2306 23.7281 24.0562C23.532 23.8818 23.2777 23.7923 23.0186 23.8067C21.9276 23.8067 21.267 24.2382 21.267 24.834C21.3606 27.2614 21.277 29.6926 21.0168 32.1072C20.5634 33.3829 19.7122 34.4692 18.5955 35.1974C17.4788 35.9256 16.1591 36.255 14.8413 36.1342C10.087 35.7952 9.08615 32.2819 8.66578 29.8883C8.2454 27.4947 8.00519 20.807 9.2563 18.0744C9.2563 18.0744 16.4227 18.3312 20.9267 14.3864C25.4308 10.4416 25.1505 7.03093 23.0186 5.57217C20.8867 4.11341 15.8922 4.37024 12.0588 7.96577C9.85781 9.93907 8.11968 12.3973 6.97426 15.1569C6.97426 15.1569 1.33923 13.9241 2.63038 7.88359C4.00161 1.57599 12.3991 2.31564 12.3991 2.31564C14.1507 2.66492 14.2307 2.82929 14.8113 2.23346C15.3918 1.63763 15.8122 0.0966821 13.0597 0.00422536C10.3072 -0.0882313 2.04986 1.30889 0.46845 6.93848C-1.22306 12.9276 1.89973 17.2114 6.09348 17.8792C6.09348 17.8792 3.80143 28.2549 6.63396 33.3914C7.41915 35.0146 8.65661 36.3617 10.1892 37.2616C11.7218 38.1615 13.4804 38.5736 15.2417 38.4457C16.8931 38.4457 19.8157 37.5005 20.6465 36.1342C20.6465 36.1342 20.2561 39.812 19.9258 41.1475C19.9258 41.1475 12.9796 41.055 10.8077 42.1748C7.11439 44.178 7.88508 48.8727 9.30635 50.5369C10.5074 51.9546 14.1207 52.7251 16.733 51.4615C18.2281 50.723 19.5196 49.6125 20.4898 48.2309C21.46 46.8494 22.0781 45.2407 22.288 43.5513C26.5142 43.3281 30.748 43.7998 34.8292 44.9485C41.0047 46.8387 49.6024 48.6056 52.1847 48.6056C54.767 48.6056 60.1918 47.8454 60.5221 45.6367C60.7023 44.178 60.1718 43.4178 59.3411 43.1507ZM15.8722 8.81843C15.8722 8.81843 19.1552 6.25019 20.7266 7.85277C21.0794 8.24335 21.2828 8.75163 21.2993 9.28397C21.3159 9.81632 21.1445 10.3369 20.8166 10.7497C20.156 11.6332 18.4145 14.4275 10.1471 15.8143C10.1471 15.8143 12.7494 11.1298 15.8722 8.81843ZM16.1425 48.7905C16.1425 48.7905 11.6084 51.328 11.138 47.8865C10.9562 47.1689 11.0201 46.409 11.3189 45.7339C11.6177 45.0588 12.1333 44.5096 12.7795 44.178C13.5702 43.7773 14.6511 43.274 19.3653 43.4486C19.3125 44.5462 18.9891 45.6121 18.4254 46.5464C17.8617 47.4807 17.0762 48.2528 16.1425 48.7905Z" fill="#FBFCFB"/>
<path d="M73.6439 24.382C73.6439 26.7037 73.6439 29.0151 73.6439 31.3368C73.6439 31.3368 73.6439 31.419 73.6439 31.46C73.5647 32.3848 73.2694 33.2764 72.7831 34.0591C72.4757 34.6276 72.0763 35.1382 71.602 35.5692C71.0716 36.0418 70.7212 34.9837 70.5211 34.5419C69.1298 31.5525 69.8004 27.546 70.3409 24.4128C70.5911 22.9129 67.6285 23.3033 67.3983 24.6388C66.8584 27.3095 66.6732 30.043 66.8478 32.7647C66.5854 32.7859 66.3304 32.8637 66.0993 32.9929C65.8682 33.1221 65.6662 33.2999 65.5066 33.5146C64.9961 34.6344 63.5048 38.3532 61.6731 36.8636C60.352 35.8363 60.2118 33.0215 60.0717 31.4498C59.9123 29.2711 60.1916 27.082 60.8925 25.0189C60.8324 25.1935 62.0335 22.1116 62.5639 23.2622C62.7074 23.8105 62.7269 24.3852 62.6211 24.9424C62.5153 25.4997 62.2869 26.0248 61.9534 26.4777C60.382 27.6899 62.8242 28.1932 63.775 27.4536C65.5766 26.0667 66.7777 21.5877 63.705 21.0535C60.2319 20.4577 58.2601 24.0532 57.5294 26.9091C57.1421 28.5492 56.9738 30.2357 57.029 31.9223C56.5486 32.7853 54.9271 35.559 53.9763 36.0315C52.8553 36.6273 52.8753 35.7952 52.9153 35.261C52.9554 34.7269 53.4558 29.9705 53.726 26.7653C53.9629 25.4929 53.7871 24.1758 53.2256 23.0157C52.7952 22.1219 49.222 20.1187 46.0792 23.8786C44.3087 25.8622 43.2252 28.3898 42.9965 31.0697C42.7863 31.5011 42.5561 31.9634 42.2858 32.4668C40.7845 35.2919 38.8928 36.4835 38.2222 34.5214C37.5477 32.4775 37.2921 30.3125 37.4715 28.1624C39.8038 24.4569 41.5156 20.377 42.536 16.0917C44.0374 9.2499 43.7571 5.84954 42.9464 5.27426C42.1357 4.69897 38.6926 3.2813 36.6208 11.6949C35.0837 17.6814 34.5456 23.8919 35.0293 30.0629C34.7091 30.7615 34.3087 31.6039 33.7982 32.5593C32.2969 35.3843 30.4152 36.576 29.7346 34.6138C29.0736 32.567 28.8317 30.4021 29.024 28.2549C31.3562 24.5494 33.068 20.4695 34.0885 16.1841C35.6399 9.2499 35.3296 5.84954 34.5189 5.27426C33.7082 4.69897 30.2651 3.2813 28.2032 11.6949C26.1414 20.1084 25.731 29.2822 27.7028 35.446C27.7028 35.446 28.7838 38.9182 30.8056 38.6614C32.4771 38.4457 34.4688 36.7609 35.6399 33.6174C35.7723 34.2352 35.936 34.8456 36.1303 35.446C36.1303 35.446 37.2113 38.9182 39.2331 38.6614C40.6043 38.4868 42.2358 37.3054 43.3768 35.148C44.0874 37.028 45.6188 38.5792 47.5906 38.2299C50.263 37.7368 50.8134 36.2472 50.8134 36.2472C50.8134 36.2472 50.7634 38.6922 52.4749 38.6922C53.9963 38.6922 55.2074 37.7779 56.4084 35.446C56.8188 34.6549 57.059 34.1927 57.1891 33.9256C57.5395 36.1342 58.4303 38.0964 60.1918 38.8874C63.1945 40.2229 65.8169 37.6855 67.3582 35.1789C67.5558 35.7829 67.878 36.3361 68.303 36.8006C68.7279 37.2651 69.2455 37.63 69.8204 37.8704C70.4759 38.0818 71.1752 38.1045 71.8424 37.936C72.5095 37.7676 73.1188 37.4144 73.6038 36.915V40.5311C73.0551 40.5011 72.5114 40.6523 72.0524 40.9625C70.5201 42.253 69.3316 43.9212 68.5982 45.8112C67.8648 47.7013 67.6103 49.7513 67.8587 51.7697C67.9009 52.3158 68.0743 52.8426 68.3632 53.3032C68.6521 53.7638 69.0476 54.1438 69.5145 54.4093C69.9813 54.6749 70.5049 54.8176 71.0386 54.8249C71.5722 54.8321 72.0994 54.7037 72.5729 54.451C75.6757 53.0641 76.1461 48.2872 76.4063 45.3696C77.0369 38.3532 76.5464 31.0491 76.5464 24.0121C76.5464 22.7178 73.6439 23.3239 73.6439 24.382ZM30.2751 12.8763C30.9657 10.1539 31.6063 9.06498 32.2769 9.06498C32.9475 9.06498 33.2077 9.79436 32.7373 12.1469C31.8645 16.659 30.491 21.0536 28.6436 25.2449C28.6436 25.2449 29.5845 15.6089 30.2751 12.8763ZM38.7026 12.8763C39.3932 10.1539 40.0338 9.06498 40.6544 9.06498C41.2749 9.06498 41.5952 9.79436 41.1248 12.1469C40.6544 14.4994 39.123 21.0022 37.0311 25.2449C37.0311 25.2449 38.032 15.6089 38.7026 12.8763ZM51.5741 25.6866C51.4941 26.2825 51.1137 30.0937 50.5732 32.1483C50.0327 34.2029 49.6624 34.9323 48.041 35.6411C46.4195 36.35 45.5988 34.1824 45.5988 34.1824C44.4478 30.895 45.9891 28.0186 47.2703 26.0462C48.5514 24.0738 49.8426 23.8991 50.5832 23.9916C50.7568 24.036 50.9201 24.1152 51.0638 24.2244C51.2076 24.3337 51.3289 24.4709 51.4209 24.6284C51.513 24.7858 51.5739 24.9603 51.6001 25.1418C51.6264 25.3234 51.6176 25.5086 51.5741 25.6866ZM73.5638 44.178C73.6242 46.9398 73.0839 49.6807 71.9824 52.2012C71.2817 52.345 70.9815 52.0779 70.7413 50.9273C70.5761 49.8209 70.5761 48.6951 70.7413 47.5886C71.0686 45.5562 72.0479 43.6942 73.5237 42.298C73.5738 42.9452 73.5738 43.5719 73.5638 44.178Z" fill="#FBFCFB"/>
<path d="M92.3806 21.4747C91.0788 20.8853 89.9035 20.0372 88.9227 18.9793C87.9418 17.9214 87.1746 16.6746 86.6655 15.3109C85.3843 11.3867 89.5881 8.4897 92.9411 8.66434C96.2941 8.83898 98.0857 12.3832 97.9456 15.5575C97.8855 16.6772 97.1949 19.2044 95.8437 17.8895C94.9501 16.8485 94.4032 15.5422 94.2823 14.1604C94.0821 12.9173 91.1795 13.657 91.3797 14.9617C91.9602 18.7216 95.9037 22.8616 99.2868 18.927C99.9789 18.0362 100.466 16.9962 100.711 15.8848C100.955 14.7735 100.952 13.6197 100.701 12.5099C100.45 11.4 99.9568 10.363 99.2595 9.47639C98.5622 8.5898 97.6784 7.87669 96.6744 7.39049C94.4096 6.48529 91.905 6.43566 89.6078 7.25044C87.3107 8.06522 85.3703 9.6914 84.1332 11.8387C81.4008 16.8211 86.8857 21.6905 90.7692 23.4677C97.0047 26.8886 97.2349 37.9012 88.9475 37.9731C87.245 37.933 85.5951 37.3594 84.2193 36.3293C82.8436 35.2991 81.8077 33.8617 81.2506 32.21C80.6801 30.4841 80.9704 24.4539 83.2524 23.9916C85.0641 23.632 84.5736 21.937 82.802 22.2555C79.0887 22.9951 77.7175 27.9159 78.0778 31.3573C78.6583 36.8431 83.6628 39.9147 88.7173 39.8736C90.9535 39.9395 93.1417 39.2 94.9022 37.7833C96.6628 36.3666 97.8847 34.3621 98.3559 32.1175C98.7278 29.9065 98.3339 27.6317 97.2424 25.6876C96.151 23.7436 94.4309 22.2531 92.3806 21.4747Z" fill="#FBFCFB"/>
<path d="M110.977 37.7985C108.125 36.1959 109.756 30.0218 110.187 27.6488C110.467 26.1181 111.738 23.7553 109.696 23.2314C107.304 22.6356 104.461 24.9675 102.41 27.1968C102.408 24.6249 102.592 22.0565 102.96 19.5126C106.125 17.8918 108.659 15.2147 110.146 11.9209C111.448 9.2499 112.088 3.70249 107.684 5.32562C103.681 6.76384 102.309 11.4894 101.058 15.2801C100.586 16.7464 100.221 18.247 99.9674 19.7694C99.5682 19.9414 99.1606 20.0923 98.7463 20.2214C97.0848 20.7556 97.305 21.6699 98.9865 21.1357L99.7972 20.8686C98.9965 26.6318 99.537 32.6723 100.047 38.3327C100.047 38.8874 103.05 38.3327 102.94 37.5314C102.72 35.0042 102.53 32.4771 102.45 29.9705C102.691 29.8979 102.909 29.7595 103.08 29.5698C104.001 28.3831 105.034 27.2924 106.163 26.3133C106.463 26.0359 106.773 25.7791 107.084 25.5325L107.544 25.1833C108.215 24.6388 108.345 24.6285 107.924 25.1833C107.768 26.1629 107.56 27.1333 107.304 28.0905C106.753 31.1724 105.172 37.2232 108.645 39.1648C109.396 39.5551 112.098 38.4046 110.977 37.7985ZM104.481 13.0303C104.792 12.1161 105.202 11.212 105.582 10.3286C106.053 9.21908 107.314 5.42835 108.225 7.24667C108.955 8.69516 107.804 11.0682 107.294 12.4551C106.49 14.6234 105.102 16.5119 103.29 17.8997C103.582 16.2514 103.98 14.6248 104.481 13.0303Z" fill="#FBFCFB"/>
<path d="M121.737 30.5971C121.737 27.2173 121.367 22.8821 117.433 22.5226C113.119 22.1219 111.428 26.755 111.368 30.217C111.361 30.3395 111.392 30.4611 111.454 30.5657C111.517 30.6702 111.609 30.7528 111.718 30.8026C111.718 34.0386 112.479 38.2607 116.232 38.1888C120.416 38.1272 121.737 34.3776 121.737 30.5971ZM116.732 36.2267C114.29 35.1994 114.51 30.8745 114.671 28.7891C114.685 28.6843 114.671 28.5773 114.628 28.4808C114.585 28.3843 114.517 28.3024 114.43 28.2446C114.731 26.19 115.511 23.1081 117.293 24.6388C118.714 25.8921 118.744 28.9021 118.814 30.6382C118.874 31.8504 118.724 36.9869 116.742 36.2267H116.732Z" fill="#FBFCFB"/>
<path d="M153.265 49.1398C152.144 46.1812 149.682 45.0306 146.969 44.9074C146.667 44.1563 146.287 43.4401 145.838 42.7706C141.925 36.8225 132.637 37.6341 126.341 40.716C126.341 39.7812 126.251 38.8463 126.211 37.9115C127.463 38.0153 128.721 37.7863 129.862 37.2465C131.003 36.7067 131.99 35.8743 132.727 34.8296C134.398 32.3743 134.158 28.0186 133.497 25.2654C132.877 22.6767 130.415 23.1389 128.563 24.0019C127.882 24.333 127.254 24.7696 126.701 25.2963C126.701 24.608 126.811 23.9094 126.861 23.2417C126.972 21.6596 124.019 22.0603 123.919 23.4574C123.458 29.8164 123.619 36.1548 123.478 42.5035C121.702 44.0013 120.291 45.9041 119.358 48.0604C118.425 50.2166 117.996 52.5667 118.104 54.9235C118.104 57.2555 120.035 59.0327 122.107 57.3685C125 55.0879 125.881 50.5575 126.281 47.0955C126.445 45.5504 126.498 43.995 126.441 42.4419C128.698 40.9228 131.334 40.105 134.033 40.0868C136.732 40.0685 139.378 40.8507 141.655 42.3391C142.632 43.0474 143.415 44.0028 143.927 45.1128C142.326 45.4066 140.771 45.9179 139.303 46.6332C137.591 47.4756 135.049 49.4686 135.169 51.6978C135.149 52.4032 135.366 53.0941 135.784 53.655C136.201 54.216 136.793 54.613 137.461 54.7797C137.552 54.8272 137.65 54.8584 137.751 54.8721C143.897 55.8994 148.471 52.1703 147.59 46.9209C150.593 48.5954 151.704 52.4785 150.643 55.8173C148.251 63.3165 139.042 64.991 133.678 59.9778C133.097 59.4436 130.485 60.5736 130.945 61.0051C138.692 68.2681 157.989 61.5496 153.265 49.1398ZM123.298 47.3215C123.213 49.1354 122.827 50.9211 122.157 52.6018C121.907 53.1668 121.637 53.7113 121.346 54.2455C121.346 54.2455 121.086 54.3071 121.036 53.5058C121.032 50.6277 121.846 47.8109 123.378 45.4005C123.358 46.0374 123.338 46.6846 123.298 47.3215ZM126.431 28.974C126.489 28.9234 126.539 28.8646 126.581 28.7994C127.119 27.8692 127.757 27.0042 128.483 26.2208C129.007 25.6096 129.617 25.0831 130.294 24.6593C130.615 24.8237 130.945 25.6866 131.065 26.8475C131.375 29.7034 131.506 37.2232 127.122 36.5143C126.78 36.4987 126.438 36.5583 126.121 36.689C126.111 34.0797 126.251 31.532 126.431 28.974ZM139.523 53.362H139.463C137.781 52.9511 137.961 51.3074 138.182 50.1979C138.672 47.5989 141.755 46.2018 144.297 46.0888C145.588 49.787 144.597 54.2147 139.523 53.362Z" fill="#FBFCFB"/>
</svg>

<svg width="154" height="64" fill="none" xmlns="http://www.w3.org/2000/svg"><path d="M59.341 43.15a3.806 3.806 0 00-2.152.38s-3.002 2.58-17.856-.39c-10.92-2.188-16.595-1.962-16.595-1.962s1.832-12.84 1.332-16.436a1.036 1.036 0 00-.342-.686.985.985 0 00-.71-.25c-1.09 0-1.751.432-1.751 1.028.094 2.427.01 4.859-.25 7.273a6.136 6.136 0 01-2.421 3.09 5.884 5.884 0 01-3.755.937c-4.754-.339-5.755-3.852-6.175-6.246-.42-2.393-.66-9.081.59-11.814 0 0 7.167.257 11.67-3.688 4.505-3.944 4.225-7.355 2.093-8.814-2.132-1.459-7.127-1.202-10.96 2.394a19.896 19.896 0 00-5.085 7.19S1.34 13.925 2.63 7.885c1.372-6.308 9.77-5.568 9.77-5.568 1.75.349 1.83.513 2.411-.083.58-.595 1.001-2.136-1.751-2.229C10.307-.088 2.05 1.31.468 6.938-1.223 12.928 1.9 17.211 6.093 17.88c0 0-2.292 10.376.541 15.512a9.05 9.05 0 003.555 3.87 8.723 8.723 0 005.053 1.185c1.651 0 4.574-.945 5.404-2.312 0 0-.39 3.678-.72 5.014 0 0-6.946-.093-9.118 1.027-3.694 2.003-2.923 6.698-1.502 8.362 1.201 1.418 4.815 2.188 7.427.925a10.017 10.017 0 003.757-3.231 10.368 10.368 0 001.798-4.68c4.226-.223 8.46.249 12.541 1.398 6.176 1.89 14.773 3.657 17.356 3.657 2.582 0 8.007-.76 8.337-2.97.18-1.458-.35-2.218-1.18-2.485zM15.872 8.819s3.283-2.568 4.855-.965c.352.39.556.899.572 1.431a2.245 2.245 0 01-.482 1.466c-.661.883-2.402 3.678-10.67 5.064 0 0 2.602-4.684 5.725-6.996zm.27 39.973s-4.534 2.537-5.004-.904a3.314 3.314 0 01.18-2.153 3.2 3.2 0 011.462-1.556c.79-.4 1.871-.904 6.585-.73a6.614 6.614 0 01-.94 3.098 6.402 6.402 0 01-2.283 2.245z" fill="#FBFCFB"/><path d="M73.644 24.382v7.078a5.877 5.877 0 01-.86 2.6 5.708 5.708 0 01-1.182 1.51c-.53.472-.88-.586-1.08-1.028-1.392-2.99-.722-6.996-.181-10.13.25-1.5-2.712-1.109-2.943.227a31.002 31.002 0 00-.55 8.126 1.836 1.836 0 00-.749.228c-.23.13-.433.307-.592.522-.51 1.12-2.002 4.838-3.834 3.349-1.321-1.028-1.461-3.842-1.601-5.414-.16-2.179.12-4.368.82-6.431-.06.175 1.141-2.907 1.672-1.757.143.549.163 1.123.057 1.68a3.778 3.778 0 01-.668 1.536c-1.571 1.212.871 1.715 1.822.976 1.802-1.387 3.003-5.866-.07-6.4-3.473-.596-5.445 3-6.176 5.855a19.1 19.1 0 00-.5 5.013c-.48.863-2.102 3.637-3.053 4.11-1.12.595-1.1-.237-1.06-.771.04-.534.54-5.29.81-8.496a6.067 6.067 0 00-.5-3.75c-.43-.893-4.004-2.896-7.147.864a12.38 12.38 0 00-3.083 7.19c-.21.432-.44.894-.71 1.398-1.502 2.825-3.393 4.017-4.064 2.054a16.044 16.044 0 01-.75-6.359 40.098 40.098 0 005.064-12.07c1.501-6.842 1.221-10.242.41-10.818-.81-.575-4.253-1.993-6.325 6.42a56.218 56.218 0 00-1.592 18.369 44.92 44.92 0 01-1.23 2.496c-1.502 2.825-3.384 4.017-4.064 2.055a16.045 16.045 0 01-.711-6.36 40.102 40.102 0 005.065-12.07c1.55-6.934 1.24-10.334.43-10.91-.81-.575-4.254-1.993-6.316 6.42-2.062 8.414-2.472 17.588-.5 23.752 0 0 1.08 3.472 3.103 3.215 1.671-.215 3.663-1.9 4.834-5.044.132.618.296 1.229.49 1.829 0 0 1.081 3.472 3.103 3.215 1.371-.174 3.003-1.356 4.144-3.513.71 1.88 2.242 3.431 4.214 3.082 2.672-.493 3.222-1.983 3.222-1.983s-.05 2.445 1.662 2.445c1.521 0 2.732-.914 3.933-3.246.41-.791.651-1.253.781-1.52.35 2.208 1.241 4.17 3.003 4.961 3.002 1.336 5.625-1.202 7.166-3.708.198.604.52 1.157.945 1.622.425.464.943.829 1.517 1.07a3.66 3.66 0 002.022.065 3.729 3.729 0 001.762-1.021v3.616a2.523 2.523 0 00-1.552.431 12.018 12.018 0 00-3.454 4.85 12.322 12.322 0 00-.74 5.958c.043.546.216 1.073.505 1.533.29.46.685.84 1.151 1.106a3.168 3.168 0 003.059.042c3.103-1.387 3.573-6.164 3.833-9.081.63-7.017.14-14.32.14-21.358 0-1.294-2.902-.688-2.902.37zM30.275 12.876c.69-2.722 1.331-3.811 2.002-3.811.67 0 .93.73.46 3.082a61.378 61.378 0 01-4.093 13.098s.94-9.636 1.631-12.369zm8.428 0c.69-2.722 1.33-3.811 1.951-3.811.62 0 .941.73.47 3.082-.47 2.352-2.001 8.855-4.093 13.098 0 0 1.001-9.636 1.672-12.369zm12.871 12.81c-.08.596-.46 4.408-1 6.462-.541 2.055-.912 2.784-2.533 3.493-1.621.709-2.442-1.459-2.442-1.459-1.151-3.287.39-6.163 1.671-8.136 1.281-1.972 2.573-2.147 3.313-2.054.174.044.337.123.48.232.145.11.266.247.358.404a1.418 1.418 0 01.153 1.059zm21.99 18.492c.06 2.762-.48 5.503-1.582 8.023-.7.144-1-.123-1.24-1.274a11.308 11.308 0 010-3.338 9.32 9.32 0 012.782-5.291c.05.647.05 1.274.04 1.88zM92.38 21.475a10.782 10.782 0 01-3.457-2.496 11.107 11.107 0 01-2.258-3.668c-1.28-3.924 2.923-6.821 6.276-6.647 3.353.175 5.145 3.72 5.005 6.893-.06 1.12-.751 3.647-2.102 2.333a6.61 6.61 0 01-1.562-3.73c-.2-1.243-3.102-.503-2.902.802.58 3.76 4.524 7.9 7.907 3.965a7.639 7.639 0 001.424-3.042 7.763 7.763 0 00-.01-3.375 7.63 7.63 0 00-1.441-3.034 7.39 7.39 0 00-2.586-2.086 10.002 10.002 0 00-7.066-.14 10.31 10.31 0 00-5.475 4.589c-2.732 4.982 2.753 9.851 6.636 11.629 6.236 3.42 6.466 14.433-1.822 14.505a8.208 8.208 0 01-4.728-1.644 8.557 8.557 0 01-2.968-4.119c-.57-1.726-.28-7.756 2.001-8.218 1.812-.36 1.322-2.055-.45-1.736-3.713.74-5.085 5.66-4.724 9.101.58 5.486 5.585 8.558 10.64 8.517a9.418 9.418 0 006.184-2.09 9.868 9.868 0 003.454-5.666 9.822 9.822 0 00-1.114-6.43 9.426 9.426 0 00-4.861-4.213z" fill="#FBFCFB"/><path d="M110.977 37.798c-2.852-1.602-1.221-7.776-.79-10.15.28-1.53 1.551-3.893-.491-4.417-2.392-.595-5.235 1.736-7.286 3.966-.002-2.572.182-5.14.55-7.684 3.165-1.621 5.699-4.298 7.186-7.592 1.302-2.671 1.942-8.219-2.462-6.595-4.003 1.438-5.375 6.163-6.626 9.954a31.596 31.596 0 00-1.09 4.49c-.4.171-.807.322-1.222.451-1.661.535-1.441 1.449.24.915l.811-.267c-.8 5.763-.26 11.803.25 17.464 0 .554 3.003 0 2.893-.802-.22-2.527-.41-5.054-.49-7.56.241-.073.459-.212.63-.401a22.873 22.873 0 013.083-3.257c.3-.277.61-.534.921-.78l.46-.35c.671-.544.801-.555.38 0-.156.98-.364 1.95-.62 2.907-.551 3.082-2.132 9.133 1.341 11.075.751.39 3.453-.76 2.332-1.367zm-6.496-24.768c.311-.914.721-1.818 1.101-2.701.471-1.11 1.732-4.9 2.643-3.082.73 1.448-.421 3.821-.931 5.208a12.185 12.185 0 01-4.004 5.445c.292-1.649.69-3.275 1.191-4.87z" fill="#FBFCFB"/><path d="M121.737 30.597c0-3.38-.37-7.715-4.304-8.074-4.314-.401-6.005 4.232-6.065 7.694a.6.6 0 00.35.586c0 3.236.761 7.458 4.514 7.386 4.184-.062 5.505-3.811 5.505-7.592zm-5.005 5.63c-2.442-1.028-2.222-5.352-2.061-7.438a.572.572 0 00-.043-.308.552.552 0 00-.198-.236c.301-2.055 1.081-5.137 2.863-3.606 1.421 1.253 1.451 4.263 1.521 6 .06 1.211-.09 6.348-2.072 5.588h-.01zM153.265 49.14c-1.121-2.959-3.583-4.11-6.296-4.233a11.622 11.622 0 00-1.131-2.136c-3.913-5.949-13.201-5.137-19.497-2.055 0-.935-.09-1.87-.13-2.805a7.152 7.152 0 003.651-.665 7.366 7.366 0 002.865-2.416c1.671-2.456 1.431-6.811.77-9.565-.62-2.588-3.082-2.126-4.934-1.263a7.38 7.38 0 00-1.862 1.294c0-.688.11-1.387.16-2.054.111-1.582-2.842-1.182-2.942.215-.461 6.36-.3 12.698-.441 19.047a15.117 15.117 0 00-4.12 5.556 15.504 15.504 0 00-1.254 6.863c0 2.332 1.931 4.11 4.003 2.445 2.893-2.28 3.774-6.81 4.174-10.273.164-1.545.217-3.1.16-4.653a13.756 13.756 0 017.592-2.355 13.752 13.752 0 017.622 2.252 7.091 7.091 0 012.272 2.774 17.953 17.953 0 00-4.624 1.52c-1.712.843-4.254 2.836-4.134 5.065-.02.705.197 1.396.615 1.957a2.996 2.996 0 001.677 1.125.883.883 0 00.29.092c6.146 1.027 10.72-2.702 9.839-7.951 3.003 1.674 4.114 5.557 3.053 8.896-2.392 7.5-11.601 9.174-16.965 4.16-.581-.533-3.193.597-2.733 1.028 7.747 7.263 27.044.545 22.32-11.865zm-29.967-1.819a16.327 16.327 0 01-1.141 5.28c-.25.566-.52 1.11-.811 1.645 0 0-.26.061-.31-.74a15.08 15.08 0 012.342-8.105c-.02.636-.04 1.284-.08 1.92zm3.133-18.347a.82.82 0 00.15-.175 14.398 14.398 0 011.902-2.578 7.927 7.927 0 011.811-1.562c.321.165.651 1.028.771 2.189.31 2.855.441 10.375-3.943 9.666a2.347 2.347 0 00-1.001.175c-.01-2.61.13-5.157.31-7.715zm13.092 24.388h-.06c-1.682-.41-1.502-2.055-1.281-3.164.49-2.6 3.573-3.996 6.115-4.11 1.291 3.699.3 8.127-4.774 7.274z" fill="#FBFCFB"/></svg>
